src/img/icons/podcasts.svg

<svg width="32" height="32" viewBox="0 0 32 32" fill="none" xmlns="http://www.w3.org/2000/svg">
<path d="M14.8947 28.8947V17.9044C14.5472 17.6909 14.276 17.4236 14.0813 17.1023C13.8867 16.7813 13.7895 16.4139 13.7895 16C13.7895 15.3973 14.0072 14.8782 14.4427 14.4427C14.8782 14.0072 15.3973 13.7895 16 13.7895C16.6027 13.7895 17.1218 14.0072 17.5573 14.4427C17.9928 14.8782 18.2105 15.3973 18.2105 16C18.2105 16.4139 18.1133 16.7851 17.9187 17.1137C17.724 17.4424 17.4528 17.7059 17.1053 17.9044V28.8947C17.1053 29.2084 16.9994 29.4709 16.7877 29.6824C16.5762 29.8941 16.3136 30 16 30C15.6864 30 15.4238 29.8941 15.2123 29.6824C15.0006 29.4709 14.8947 29.2084 14.8947 28.8947ZM7.15495 25.3608C6.92653 25.5893 6.65549 25.6988 6.34184 25.6895C6.02819 25.6799 5.76465 25.5533 5.55121 25.3096C4.44595 24.055 3.5777 22.6409 2.94647 21.0673C2.31549 19.4934 2 17.8043 2 16C2 14.0653 2.36793 12.2464 3.10379 10.5433C3.83965 8.83998 4.8377 7.35819 6.09795 6.09795C7.35819 4.8377 8.83998 3.83965 10.5433 3.10379C12.2464 2.36793 14.0653 2 16 2C17.9347 2 19.7536 2.36793 21.4567 3.10379C23.16 3.83965 24.6418 4.8377 25.9021 6.09795C27.1623 7.35819 28.1603 8.83998 28.8962 10.5433C29.6321 12.2464 30 14.0653 30 16C30 17.7949 29.6845 19.4817 29.0535 21.0603C28.4223 22.6386 27.5541 24.055 26.4488 25.3096C26.2353 25.5533 25.9756 25.6837 25.6696 25.7009C25.3635 25.7178 25.0962 25.612 24.8675 25.3833C24.6541 25.1699 24.5545 24.904 24.5687 24.5857C24.5827 24.2674 24.6966 23.9863 24.9103 23.7424C25.8114 22.7015 26.5166 21.5235 27.0257 20.2085C27.5349 18.8935 27.7895 17.4906 27.7895 16C27.7895 12.7088 26.6474 9.92105 24.3632 7.63684C22.0789 5.35263 19.2912 4.21053 16 4.21053C12.7088 4.21053 9.92105 5.35263 7.63684 7.63684C5.35263 9.92105 4.21053 12.7088 4.21053 16C4.21053 17.4906 4.46277 18.8897 4.96726 20.1971C5.47175 21.5045 6.18686 22.6787 7.11258 23.7199C7.32602 23.9635 7.44367 24.2408 7.46553 24.5518C7.48714 24.8625 7.38361 25.1322 7.15495 25.3608ZM11.3181 21.1977C11.0897 21.4261 10.821 21.5418 10.512 21.5447C10.203 21.5474 9.94942 21.4195 9.75121 21.1608C9.17672 20.4466 8.72368 19.6563 8.39211 18.7901C8.06053 17.9238 7.89474 16.9938 7.89474 16C7.89474 13.7516 8.68353 11.8387 10.2611 10.2611C11.8387 8.68353 13.7516 7.89474 16 7.89474C18.2484 7.89474 20.1613 8.68353 21.7389 10.2611C23.3165 11.8387 24.1053 13.7516 24.1053 16C24.1053 16.9844 23.9395 17.9159 23.6079 18.7945C23.2763 19.6728 22.8233 20.4616 22.2488 21.1608C22.0506 21.4045 21.797 21.5325 21.488 21.5447C21.179 21.557 20.9103 21.4488 20.6819 21.2202C20.4682 21.0067 20.36 20.748 20.3573 20.4439C20.3544 20.1396 20.4475 19.858 20.6366 19.5991C21.0219 19.089 21.328 18.5317 21.5547 17.9272C21.7814 17.3225 21.8947 16.6801 21.8947 16C21.8947 14.3789 21.3175 12.9912 20.1632 11.8368C19.0088 10.6825 17.6211 10.1053 16 10.1053C14.3789 10.1053 12.9912 10.6825 11.8368 11.8368C10.6825 12.9912 10.1053 14.3789 10.1053 16C10.1053 16.6953 10.2186 17.3415 10.4453 17.9386C10.672 18.5355 10.9781 19.089 11.3634 19.5991C11.5525 19.858 11.6456 20.1358 11.6427 20.4325C11.64 20.7289 11.5318 20.984 11.3181 21.1977Z" fill="#131212"/>
</svg>

<svg xmlns="http://www.w3.org/2000/svg" viewBox="0 0 32 32">
  <path fill="currentColor" d="M14.895 28.895v-10.99a2.397 2.397 0 0 1-.814-.803A2.084 2.084 0 0 1 13.79 16c0-.603.217-1.122.653-1.557A2.126 2.126 0 0 1 16 13.79c.603 0 1.122.217 1.557.653.436.435.654.954.654 1.557 0 .414-.098.785-.292 1.114a2.183 2.183 0 0 1-.814.79v10.99c0 .314-.106.577-.317.788A1.07 1.07 0 0 1 16 30a1.07 1.07 0 0 1-.788-.318 1.069 1.069 0 0 1-.317-.787Zm-7.74-3.534c-.228.228-.5.338-.813.328a1.056 1.056 0 0 1-.79-.38 14.577 14.577 0 0 1-2.606-4.242C2.316 19.493 2 17.804 2 16c0-1.935.368-3.754 1.104-5.457a14.157 14.157 0 0 1 2.994-4.445 14.157 14.157 0 0 1 4.445-2.994C12.246 2.368 14.065 2 16 2s3.754.368 5.457 1.104a14.158 14.158 0 0 1 4.445 2.994 14.159 14.159 0 0 1 2.994 4.445C29.632 12.246 30 14.065 30 16c0 1.795-.316 3.482-.947 5.06a14.549 14.549 0 0 1-2.604 4.25 1.084 1.084 0 0 1-.78.39 1.014 1.014 0 0 1-.802-.317 1.014 1.014 0 0 1-.298-.797c.014-.319.128-.6.341-.844a11.94 11.94 0 0 0 2.116-3.534c.509-1.314.764-2.717.764-4.208 0-3.291-1.143-6.079-3.427-8.363S19.291 4.21 16 4.21c-3.291 0-6.079 1.142-8.363 3.426C5.353 9.92 4.21 12.709 4.21 16c0 1.49.252 2.89.756 4.197a11.475 11.475 0 0 0 2.146 3.523c.213.244.33.52.353.832a1 1 0 0 1-.311.809Zm4.163-4.163a1.119 1.119 0 0 1-.806.347.907.907 0 0 1-.76-.384 8.746 8.746 0 0 1-1.36-2.37A7.739 7.739 0 0 1 7.895 16c0-2.248.789-4.161 2.366-5.739C11.84 8.684 13.751 7.895 16 7.895c2.248 0 4.161.789 5.739 2.366 1.578 1.578 2.366 3.49 2.366 5.739 0 .984-.166 1.916-.497 2.794a8.334 8.334 0 0 1-1.36 2.367.991.991 0 0 1-.76.384 1.04 1.04 0 0 1-.806-.325 1.07 1.07 0 0 1-.325-.776 1.38 1.38 0 0 1 .28-.845 6.61 6.61 0 0 0 .918-1.672c.226-.604.34-1.247.34-1.927 0-1.621-.578-3.009-1.732-4.163-1.154-1.155-2.542-1.732-4.163-1.732-1.621 0-3.009.577-4.163 1.732-1.155 1.154-1.732 2.542-1.732 4.163 0 .695.114 1.341.34 1.939.227.596.533 1.15.918 1.66.19.259.283.537.28.834a1.06 1.06 0 0 1-.325.765Z"/>
</svg>
